X: 117206
Q: "Reel."
M: C
L: 1/8
K: D
uF |\
uf |\
defg abaf | gefd eBBe |
defg abaf | geag fdde |\
defg abaf | gefd eBBe |\
dfeg afge | fbef dD D |]\
"_Fine."D4 ||



